public/assets/images/service/02.svg

<svg width="60" height="60" viewBox="0 0 60 60" fill="none" xmlns="http://www.w3.org/2000/svg">
<path d="M34.0052 27.0934C34.0052 24.8675 32.1998 23.0566 29.9807 23.0566C27.7614 23.0566 25.9561 24.8675 25.9561 27.0934C25.9561 28.9655 27.2331 30.5436 28.9591 30.9983L28.9795 35.2757C28.9822 35.8405 29.4409 36.282 30.005 36.282H30.01C30.5764 36.282 31.0334 35.8382 31.0308 35.2718L31.0104 30.9959C32.7323 30.5383 34.0052 28.9624 34.0052 27.0934ZM29.9808 29.0791C28.8927 29.0791 28.0075 28.1883 28.0075 27.0934C28.0075 25.9986 28.8926 25.1079 29.9808 25.1079C31.0687 25.1079 31.954 25.9986 31.954 27.0934C31.954 28.1883 31.0687 29.0791 29.9808 29.0791Z" fill="#0F62FE"/>
<path d="M56.1501 25.8983C54.3828 25.8983 52.8909 27.0514 52.4404 28.7181H45.5368C45.9418 26.795 46.2363 24.8719 46.4653 22.8206H51.4745C52.0409 22.8206 52.4359 22.4013 52.4359 21.8349V12.04C54.1026 11.5922 55.2978 10.1003 55.2978 8.33269C55.2978 6.21231 53.5869 4.4873 51.464 4.4873C49.3412 4.4873 47.5901 6.21231 47.5901 8.33269C47.5901 10.0963 48.8462 11.5854 50.3846 12.0369V20.7694H46.6773C46.8264 19.2309 46.9453 17.5738 47.0556 15.9404C47.0999 15.2856 46.51 14.7865 45.8746 14.8853C44.6567 15.1182 43.4251 15.2937 42.1827 15.2937C38.0558 15.2935 34.2637 13.4222 30.6515 9.63C30.138 9.19243 29.6328 9.20179 29.1363 9.65807C25.3004 14.1582 19.9777 16.029 14.1262 14.8849C13.4885 14.7601 12.8617 15.2855 12.906 15.9406C13.0185 17.6 13.1368 19.2309 13.2813 20.7694H9.8718V12.0369C11.4103 11.5854 12.6796 10.0964 12.6796 8.33269C12.6796 6.21231 10.9472 4.4873 8.82436 4.4873C6.70154 4.4873 4.98256 6.21231 4.98256 8.33269C4.98256 10.1004 6.15385 11.5922 7.82051 12.04V21.8347C7.82051 22.4012 8.25795 22.8205 8.82436 22.8205H13.4887C13.7154 24.8718 14.0045 26.7949 14.4033 28.7179H7.55974C7.1091 27.0513 5.61731 25.8982 3.85 25.8982C1.72705 25.8983 0 27.6235 0 29.7438C0 31.8641 1.72705 33.5891 3.84987 33.5891C5.61718 33.5891 7.10897 32.436 7.55962 30.7694H14.8924C15.4417 32.8251 16.2181 34.7319 17.0831 36.6668H8.82436C8.25795 36.6668 7.82051 37.0863 7.82051 37.6527V47.9618C6.15385 48.4114 4.98551 49.9019 4.98551 51.6676C4.98551 53.7879 6.70705 55.5129 8.82987 55.5129C10.9528 55.5129 12.688 53.7879 12.688 51.6676C12.688 49.9019 11.5385 48.4114 9.8718 47.9618V38.7181H18.2572C20.8838 42.8206 24.6388 45.7101 29.6368 47.574C29.8781 47.6463 30.1197 47.6469 30.3615 47.5758C35.3132 45.6813 39.0418 42.6924 41.66 38.7181H50.3846V47.9618C48.8462 48.4114 47.5924 49.9019 47.5924 51.6676C47.5924 53.7879 49.3355 55.5129 51.4585 55.5129C53.5814 55.5129 55.2842 53.7879 55.2842 51.6676C55.2842 49.9019 54.1026 48.4114 52.4359 47.9618V37.6528C52.4359 37.0864 52.0409 36.6669 51.4745 36.6669H42.8409C43.7226 34.7378 44.4969 32.8227 45.045 30.7695H52.4403C52.8909 32.4362 54.3827 33.5892 56.15 33.5892C58.273 33.5891 60 31.8641 60 29.7437C60 27.6233 58.273 25.8983 56.1501 25.8983ZM49.6815 8.33269C49.6815 7.34333 50.4883 6.53859 51.48 6.53859C52.4717 6.53859 53.2786 7.34333 53.2786 8.33269C53.2786 9.32205 52.4717 10.1268 51.48 10.1268C50.4883 10.1268 49.6815 9.32205 49.6815 8.33269ZM7.02026 8.33269C7.02026 7.34333 7.82718 6.53859 8.81885 6.53859C9.81051 6.53859 10.6174 7.34333 10.6174 8.33269C10.6174 9.32205 9.81051 10.1268 8.81885 10.1268C7.82718 10.1268 7.02026 9.32205 7.02026 8.33269ZM3.84987 31.5378C2.85821 31.5378 2.05128 30.7331 2.05128 29.7438C2.05128 28.7545 2.85821 27.9497 3.84987 27.9497C4.84154 27.9497 5.64846 28.7545 5.64846 29.7438C5.64859 30.7331 4.84167 31.5378 3.84987 31.5378ZM10.6229 51.6676C10.6229 52.6569 9.81603 53.4617 8.82436 53.4617C7.83269 53.4617 7.0259 52.6569 7.0259 51.6676C7.0259 50.6782 7.83269 49.8735 8.82436 49.8735C9.81603 49.8735 10.6229 50.6782 10.6229 51.6676ZM53.2731 51.6676C53.2731 52.6569 52.4662 53.4617 51.4745 53.4617C50.4828 53.4617 49.6759 52.6569 49.6759 51.6676C49.6759 50.6782 50.4828 49.8735 51.4745 49.8735C52.4662 49.8735 53.2731 50.6782 53.2731 51.6676ZM15.0431 17.1101C20.5771 17.8233 26.2312 16.0994 29.9564 11.8359C33.9881 15.7449 39.2459 18.0485 44.9194 17.1023C43.9605 30.2829 41.9847 40.7146 29.9905 45.4937C17.9891 40.827 16.0086 30.3581 15.0431 17.1101ZM56.1501 31.5378C55.1585 31.5378 54.3515 30.7331 54.3515 29.7438C54.3515 28.7545 55.1585 27.9497 56.1501 27.9497C57.1418 27.9497 57.9487 28.7545 57.9487 29.7438C57.9487 30.7331 57.1418 31.5378 56.1501 31.5378Z" fill="#0F62FE"/>
</svg>

<svg xmlns="http://www.w3.org/2000/svg" width="60" height="60" fill="none" viewBox="0 0 60 60"><path fill="#0f62fe" d="M34.005 27.093a4.035 4.035 0 0 0-4.024-4.036 4.035 4.035 0 0 0-4.025 4.036 4.04 4.04 0 0 0 3.003 3.905l.02 4.278a1.013 1.013 0 0 0 1.026 1.006h.005c.566 0 1.023-.444 1.02-1.01l-.02-4.276a4.04 4.04 0 0 0 2.995-3.903m-4.024 1.986a1.98 1.98 0 0 1-1.974-1.986c0-1.094.886-1.985 1.974-1.985s1.973.89 1.973 1.985a1.98 1.98 0 0 1-1.973 1.986"/><path fill="#0f62fe" d="M56.15 25.898c-1.767 0-3.26 1.153-3.71 2.82h-6.903c.405-1.923.7-3.846.928-5.897h5.01c.566 0 .96-.42.96-.986V12.04a3.84 3.84 0 0 0 2.863-3.707c0-2.12-1.711-3.846-3.834-3.846S47.59 6.212 47.59 8.333c0 1.763 1.256 3.252 2.795 3.704v8.732h-3.708c.15-1.538.268-3.195.379-4.829.044-.654-.546-1.153-1.181-1.055-1.218.233-2.45.409-3.692.409-4.127 0-7.92-1.872-11.532-5.664q-.77-.657-1.515.028c-3.836 4.5-9.158 6.371-15.01 5.227-.637-.125-1.264.4-1.22 1.056.112 1.659.23 3.29.375 4.828h-3.41v-8.732c1.54-.452 2.809-1.94 2.809-3.704a3.857 3.857 0 0 0-3.856-3.846 3.845 3.845 0 0 0-3.841 3.846A3.82 3.82 0 0 0 7.82 12.04v9.795c0 .566.437.985 1.003.985h4.665c.226 2.052.515 3.975.914 5.898H7.56c-.45-1.667-1.943-2.82-3.71-2.82A3.85 3.85 0 0 0 0 29.744a3.85 3.85 0 0 0 3.85 3.845c1.767 0 3.259-1.153 3.71-2.82h7.332c.55 2.056 1.326 3.963 2.191 5.898H8.824c-.566 0-1.003.42-1.003.986v10.309a3.816 3.816 0 0 0-2.835 3.706 3.847 3.847 0 0 0 3.844 3.845c2.123 0 3.858-1.725 3.858-3.845 0-1.766-1.15-3.257-2.816-3.706v-9.244h8.385c2.627 4.103 6.382 6.992 11.38 8.856q.362.108.724.002c4.952-1.895 8.68-4.884 11.299-8.858h8.725v9.244c-1.539.45-2.793 1.94-2.793 3.706 0 2.12 1.744 3.845 3.867 3.845 2.122 0 3.825-1.725 3.825-3.845a3.83 3.83 0 0 0-2.848-3.706v-10.31c0-.566-.395-.985-.962-.985h-8.633c.882-1.93 1.656-3.844 2.204-5.898h7.395c.45 1.667 1.943 2.82 3.71 2.82A3.85 3.85 0 0 0 60 29.744a3.85 3.85 0 0 0-3.85-3.846M49.682 8.333a1.798 1.798 0 0 1 3.597 0 1.798 1.798 0 0 1-3.598 0m-42.662 0a1.798 1.798 0 0 1 3.597 0 1.798 1.798 0 0 1-3.597 0M3.85 31.538a1.8 1.8 0 0 1-1.799-1.794 1.798 1.798 0 0 1 3.597 0c0 .99-.806 1.794-1.798 1.794m6.773 20.13a1.798 1.798 0 0 1-3.597 0 1.798 1.798 0 0 1 3.597 0m42.65 0a1.798 1.798 0 0 1-3.597 0 1.798 1.798 0 0 1 3.597 0M15.043 17.11c5.534.713 11.188-1.01 14.913-5.274 4.032 3.909 9.29 6.213 14.963 5.266-.958 13.18-2.934 23.613-14.928 28.392-12.002-4.667-13.982-15.136-14.948-28.384M56.15 31.538a1.8 1.8 0 0 1-1.798-1.794 1.798 1.798 0 0 1 3.597 0c0 .99-.807 1.794-1.799 1.794"/></svg>
